X: 9041
T: Da Eye Wifie
R: reel
M: 4/4
K: Dmajor
|:D2FD EFGE|FD (3DDD DFED|B ~E3 EFGA|BFAF Egfe|
fd (3ddd BAFB|Adcd BAFd|d ~e3 afef|1 dBAB d4:|2 dBAB d2 fg||
|:fd (3ddd cdBd|Adcd fdcd|Bdgd Adfd|Acec Aage|
fd (3ddd cdBd|Adcd BAFd|d ~e3 afef|1 dBAB d2 fg:|2 dBAB d4||

